X: 15166
T: Gigue Du Salon
R: jig
M: 6/8
K: Amajor
"A" EAB c2e|"Asus4"d2e "A"cBA|"E/A"BcA ~B3|BcA GFE|
"A"EAB c2e|"Asus4"d2e "A"cBA|"E/A"BcA BAF|EFG A3:|
"A"~e3 cBA|efe cBA|"E/A"BcA ~B3|BcA GFE|
"D/A"~e3 cBA|efe cBA|"E/A"BcA BAF|EFG A3|
"A"~e3 cBA|efe cBA|"E/A"BcA ~B3|BcA GFE|
"A"EAB c2e|"Asus4"d2e "A"cBA|"E/A"BcA BAF|EFG "A"A3||

